2 Export/Icons/Brands/MailChimp.svg

<svg xmlns="http://www.w3.org/2000/svg" xmlns:xlink="http://www.w3.org/1999/xlink" width="24" height="24" viewBox="0 0 24 24">
  <defs>
    <path id="mailchimp-a" d="M16.7355923,11.5055812 C16.8593408,11.4898313 16.9845894,11.4898313 17.108338,11.5055812 C17.1750872,11.3518329 17.1863371,11.087086 17.1263378,10.7990893 C17.0363388,10.3708442 16.9163402,10.1113472 16.6665931,10.1518467 C16.4168459,10.1923463 16.407096,10.5028427 16.497095,10.9310878 C16.5473444,11.171835 16.6365934,11.3780826 16.7363423,11.5055812 L16.7355923,11.5055812 Z M14.5906169,11.8445773 C14.7698648,11.9233264 14.8793636,11.9750758 14.9221131,11.9300763 C14.9498628,11.9015766 14.9416129,11.8475772 14.8996134,11.777828 C14.8111144,11.6330797 14.6296165,11.4868314 14.4368687,11.4050823 C14.030762,11.2364958 13.5660983,11.2922327 13.2113827,11.5520806 C13.0913841,11.6398296 12.9788854,11.7620782 12.9938852,11.8355774 C12.9998852,11.8595771 13.017135,11.8775769 13.0591345,11.8835768 C13.1581334,11.8948267 13.5023794,11.7208287 13.8991248,11.696079 C14.1796216,11.6788292 14.412119,11.7665782 14.5906169,11.8453273 L14.5906169,11.8445773 Z M14.230621,12.0500749 C13.9981237,12.0875745 13.8698752,12.1640736 13.7873761,12.2353228 C13.7168769,12.2968221 13.6733774,12.3650713 13.6733774,12.4130707 L13.6913772,12.4558202 L13.7296268,12.4708201 C13.7821262,12.4708201 13.9006248,12.4228206 13.9006248,12.4228206 C14.1397077,12.3325591 14.3980764,12.3056887 14.6506162,12.3448215 C14.7668649,12.3583214 14.8231142,12.3658213 14.8478639,12.3253217 C14.8553639,12.3140719 14.8651137,12.2885722 14.841864,12.2503226 C14.7871146,12.1618236 14.5516174,12.0125753 14.231371,12.0508249 L14.230621,12.0500749 Z M16.0118506,12.8045662 C16.1693488,12.8825653 16.3433468,12.8518157 16.4003461,12.737067 C16.4573455,12.6208183 16.3748464,12.4640702 16.2165982,12.386821 C16.0591,12.3088219 15.885102,12.3395716 15.8281027,12.4543203 C15.7711033,12.5705689 15.8536024,12.7273171 16.0118506,12.8045662 Z M17.0280889,11.9150765 C16.8998404,11.9128265 16.7925916,12.0538249 16.7903416,12.2308228 C16.7873417,12.4070708 16.8885905,12.5518191 17.016839,12.5540691 C17.1450876,12.5563191 17.2523363,12.4153207 17.2553363,12.2390727 C17.2575863,12.0628248 17.1563374,11.9180764 17.0280889,11.9150765 L17.0280889,11.9150765 Z M8.40018802,15.0972899 C8.36868839,15.0575404 8.31618899,15.0695402 8.26518958,15.0815401 C8.22603775,15.0920382 8.18572322,15.0975814 8.14519095,15.0980399 C8.0582292,15.0999633 7.97605584,15.0583138 7.92619347,14.9870412 C7.86769414,14.8970422 7.8714441,14.7627937 7.93519337,14.6090455 L7.96519302,14.5400463 C8.06869183,14.309049 8.24118985,13.9213034 8.04769207,13.5523076 C7.90219375,13.2748108 7.66444648,13.1008128 7.37869976,13.0648132 C7.10441902,13.0296873 6.83000544,13.1287888 6.64145823,13.3310602 C6.3572115,13.6445566 6.312962,14.0720517 6.36846137,14.2235499 C6.38871113,14.2782993 6.42021077,14.2940491 6.44271051,14.2970491 C6.49145995,14.303799 6.56270913,14.2685494 6.60770862,14.1470508 L6.62045847,14.1080513 C6.63995825,14.044302 6.67745782,13.9258034 6.73820712,13.8305545 C6.81302305,13.7157944 6.93040393,13.6354963 7.06447705,13.6073592 C7.19855017,13.5792222 7.3383092,13.605556 7.45294891,13.6805562 C7.65244661,13.8118047 7.72894574,14.0555519 7.64419671,14.2887992 C7.59994722,14.4095478 7.52869804,14.6397952 7.54444786,14.828793 C7.57669749,15.2127886 7.81219478,15.3665368 8.02294236,15.3837866 C8.22844,15.3912865 8.37243834,15.2750379 8.40843793,15.1902888 C8.43093767,15.1407894 8.41218789,15.1100398 8.40093802,15.0965399 L8.40093802,15.0972899 L8.40018802,15.0972899 Z M20.2688017,14.395298 C20.2613018,14.3675483 20.2103023,14.1808004 20.1398031,13.955803 L19.9973048,13.5733074 C20.2785516,13.1510623 20.2830515,12.7738166 20.2463019,12.560819 C20.2058024,12.2960721 20.0963036,12.0703247 19.8743062,11.8378273 C19.6530587,11.60383 19.199314,11.3653328 18.5618213,11.1868348 L18.2280751,11.0938359 C18.2265751,11.080336 18.2108253,10.304095 18.1958255,9.97109879 C18.1860756,9.73110155 18.1650758,9.35460587 18.0488272,8.98486012 C17.9100788,8.48311589 17.6685815,8.04512092 17.366335,7.76462414 C18.1988254,6.90063407 18.7185695,5.94814501 18.7170695,5.13140439 C18.7148195,3.56017245 16.7888416,3.08392792 14.4151189,4.0694166 L13.9126247,4.28316414 C13.6055187,3.98101996 13.298022,3.67927318 12.9901353,3.37792454 C10.2826664,1.01245172 1.8220136,10.4338435 4.52648253,12.7228172 L5.11822573,13.2238114 C4.95833035,13.6528653 4.901803,14.1135632 4.95322763,14.568546 C5.01697689,15.1985387 5.34097317,15.8015318 5.86671713,16.2680264 C6.3654614,16.7105214 7.02170386,16.9917681 7.65844655,16.9910181 C8.71068446,19.4209902 11.1159068,20.9119731 13.9358744,20.9959721 C16.9613397,21.0859711 19.5008105,19.6639874 20.5657983,17.1095168 C20.6355475,16.9295188 20.9302941,16.1217781 20.9302941,15.4092863 C20.9302941,14.6922946 20.5260487,14.395298 20.2688017,14.395298 Z M7.89169387,16.307776 C7.79906814,16.3235673 7.70513053,16.3303488 7.61119709,16.3280258 C6.69770758,16.303276 5.71071892,15.4797855 5.61247005,14.5017967 C5.5037213,13.4218091 6.05496497,12.5908187 7.02995377,12.394321 C7.16493651,12.3674024 7.3027363,12.3573257 7.44019905,12.3643213 C7.98694277,12.394321 8.79243352,12.8143161 8.97618141,14.0075524 C9.13892954,15.0635403 8.88018251,16.1397779 7.89169387,16.308526 L7.89169387,16.307776 Z M6.87170558,11.7478284 C6.26421256,11.865577 5.72871872,12.2105731 5.40172247,12.6868176 C5.20597472,12.5233195 4.84147891,12.2068231 4.77697965,12.0838245 C4.25423566,11.0900859 5.3469731,9.15735814 6.11046433,8.06612068 C7.99819264,5.36915166 10.9516587,3.32767512 12.320393,3.69817086 C12.5423904,3.76117014 13.278882,4.61616031 13.278882,4.61616031 C13.278882,4.61616031 11.9116477,5.37590159 10.6434123,6.43563941 C8.93493188,7.75337427 7.64419671,9.66885226 6.87095559,11.7478284 L6.87170558,11.7478284 Z M16.4618454,15.9042806 C16.4824806,15.8949012 16.4950618,15.873633 16.493345,15.8510312 C16.4920232,15.8376744 16.4854127,15.8254016 16.4749871,15.8169484 C16.4645614,15.8084952 16.4511872,15.8045642 16.4378457,15.8060318 C16.4378457,15.8060318 15.0068621,16.0182793 13.6546277,15.521785 C13.801626,15.0425405 14.1931215,15.2157885 14.7856147,15.263788 C15.7057186,15.3183437 16.6284637,15.2184641 17.5155833,14.9682914 C18.1275763,14.7920434 18.931567,14.4447974 19.5570598,13.9513031 C19.7670574,14.4147977 19.8420566,14.9247919 19.8420566,14.9247919 C19.8420566,14.9247919 20.0048047,14.8955422 20.1413031,14.9795413 C20.2695517,15.0590403 20.3640506,15.2240384 20.2995513,15.6507835 C20.1683028,16.4480244 19.8300567,17.0952669 19.2615632,17.6907601 C18.9064828,18.0755355 18.4837168,18.3917838 18.0143276,18.6237494 C17.753233,18.7613593 17.4810266,18.8767647 17.2005869,18.9687454 C15.0571115,19.6699874 12.8626368,18.8989962 12.1553949,17.2437652 C12.0978328,17.1171522 12.0501901,16.9862602 12.0128965,16.8522697 C11.71215,15.7610323 11.967897,14.4522973 12.7681378,13.6280568 C12.8168873,13.5755574 12.8671367,13.5133081 12.8671367,13.436059 C12.8671367,13.3708097 12.8258872,13.3025605 12.7906376,13.2538111 C12.5108908,12.8473157 11.5411519,12.1543237 11.7361497,10.8133391 C11.8756481,9.84960019 12.7171384,9.17160798 13.5008794,9.21210751 L13.6996271,9.22335738 C14.0393732,9.24360715 14.3356198,9.28710665 14.6161166,9.29910651 C15.0841112,9.31935628 15.5048564,9.25110706 16.0036007,8.83486185 C16.1715987,8.69461346 16.3065972,8.57236486 16.5345946,8.5341153 C16.5585943,8.53036534 16.6178436,8.50861559 16.7370922,8.51461553 C16.8589397,8.5192655 16.977199,8.55712923 17.0790883,8.62411427 C17.4788337,8.89036121 17.5350831,9.5353538 17.5560828,10.0078484 C17.5680827,10.2778453 17.6003323,10.9288378 17.6115822,11.1163356 C17.6370819,11.5438307 17.7488306,11.60383 17.976078,11.6788292 C18.1035765,11.7215787 18.2228252,11.7530783 18.3975732,11.8018278 C18.9263171,11.951076 19.2398135,12.1018243 19.4378112,12.2960721 C19.5563099,12.4168207 19.6103092,12.5458192 19.627559,12.6688178 C19.6905583,13.1248126 19.2750631,13.6880561 18.1740757,14.1995502 C16.9703396,14.7590438 15.5116063,14.9007922 14.5028679,14.7882934 L14.149622,14.7485439 C13.3426312,14.6397952 12.8828865,15.6837832 13.366631,16.3992749 C13.6786274,16.8605196 14.5291176,17.1605162 15.3788578,17.1605162 C17.3288354,17.1605162 18.8273182,16.3272758 19.3845618,15.606534 L19.4295613,15.5427848 C19.456561,15.5015353 19.4340613,15.4790355 19.3995617,15.5022852 C18.9443169,15.8142817 16.9215901,17.0540174 14.757115,16.6805217 C14.757115,16.6805217 14.494618,16.6377722 14.2546208,16.5440233 C14.064123,16.4697741 13.6651275,16.2860262 13.6171281,15.875781 C15.363108,16.4165247 16.4618454,15.9050306 16.4618454,15.9050306 L16.4618454,15.9042806 Z M10.3554156,8.05487081 C11.0266578,7.27787973 11.8523984,6.60288749 12.5918899,6.22414184 C12.6173896,6.21139199 12.6443893,6.23914167 12.6308894,6.26389138 C12.5716401,6.37039016 12.4583914,6.59913753 12.4231418,6.77163555 C12.4205389,6.78354208 12.4253981,6.79584001 12.4354365,6.80275169 C12.4454748,6.80966337 12.4586971,6.80981494 12.4688913,6.80313519 C12.929386,6.4888888 13.7296268,6.15214267 14.4323687,6.10939316 C14.4623684,6.10714318 14.4773682,6.14614274 14.4526185,6.16489252 C14.3371198,6.2541415 14.232871,6.3583903 14.144372,6.47463896 C14.1376298,6.48362147 14.1364696,6.49561765 14.1413657,6.50572566 C14.1462618,6.51583368 14.1563938,6.52236021 14.1676218,6.52263841 C14.6603661,6.52638837 15.3556081,6.69888639 15.8086029,6.95388346 C15.8386026,6.97113326 15.8176028,7.03038258 15.7831032,7.02288266 C15.0976111,6.86538447 13.975624,6.74538585 12.8101374,7.03038258 C11.7698993,7.28462966 10.9756584,7.67687515 10.3966651,8.0991203 C10.3666654,8.12087005 10.3321658,8.0818705 10.3554156,8.05412082 L10.3554156,8.05487081 Z"/>
  </defs>
  <g fill="none" fill-rule="evenodd">
    <polygon points="0 0 24 0 24 24 0 24"/>
    <mask id="mailchimp-b" fill="#fff">
      <use xlink:href="#mailchimp-a"/>
    </mask>
    <use fill="#000" xlink:href="#mailchimp-a"/>
    <g fill="#000" mask="url(#mailchimp-b)">
      <rect width="24" height="24"/>
    </g>
  </g>
</svg>

<svg xmlns="http://www.w3.org/2000/svg" xmlns:xlink="http://www.w3.org/1999/xlink" width="24" height="24" viewBox="0 0 24 24">
  <defs>
    <path id="mailchimp-a" d="M16.736 11.506c.123-.016.249-.016.372 0 .067-.154.078-.419.018-.707-.09-.428-.21-.688-.46-.647-.25.04-.259.35-.169.78.05.24.14.446.24.574h-.001zm-2.145.339c.179.078.288.13.331.085.028-.028.02-.082-.022-.152a1.047 1.047 0 0 0-.463-.373 1.258 1.258 0 0 0-1.226.147c-.12.088-.232.21-.217.284.006.024.023.042.065.048.1.01.443-.163.84-.188.28-.017.513.07.692.15v-.001zm-.36.205c-.233.038-.361.114-.444.185-.07.062-.114.13-.114.178l.018.043.039.015c.052 0 .17-.048.17-.048.24-.09.498-.117.75-.078.117.013.173.02.198-.02.007-.01.017-.036-.006-.075-.055-.088-.29-.237-.61-.2h-.001zm1.78.755c.158.078.332.047.39-.068.056-.116-.026-.273-.184-.35-.158-.078-.332-.047-.389.067-.057.117.026.273.184.35zm1.017-.89c-.128-.002-.235.139-.238.316-.003.176.099.32.227.323.128.002.235-.139.238-.315.003-.176-.099-.32-.227-.324zM8.4 15.097c-.031-.04-.084-.027-.135-.015a.484.484 0 0 1-.12.016.26.26 0 0 1-.219-.111c-.058-.09-.055-.224.01-.378l.03-.069c.103-.231.275-.619.082-.988-.146-.277-.384-.451-.67-.487a.859.859 0 0 0-.737.266c-.284.314-.328.741-.273.893.02.054.052.07.075.073.048.007.12-.028.165-.15l.012-.039a1.17 1.17 0 0 1 .118-.277.516.516 0 0 1 .715-.15c.2.13.276.375.191.608-.044.12-.115.35-.1.54.033.384.268.538.479.555.205.007.35-.109.385-.194.023-.05.004-.08-.007-.093zm11.869-.702a12.64 12.64 0 0 0-.13-.44l-.142-.382c.282-.422.286-.8.25-1.012a1.28 1.28 0 0 0-.373-.723c-.22-.234-.675-.473-1.312-.651l-.334-.093c-.001-.014-.017-.79-.032-1.123-.01-.24-.03-.616-.147-.986-.139-.502-.38-.94-.683-1.22.833-.864 1.353-1.817 1.351-2.634-.002-1.57-1.928-2.047-4.302-1.062l-.502.214-.923-.905c-2.707-2.366-11.168 7.056-8.464 9.345l.592.5c-.16.43-.216.89-.165 1.346.064.63.388 1.233.914 1.699.498.443 1.155.724 1.791.723 1.053 2.43 3.458 3.921 6.278 4.005 3.025.09 5.565-1.332 6.63-3.886.07-.18.364-.988.364-1.7 0-.718-.404-1.015-.661-1.015zM7.892 16.308a1.455 1.455 0 0 1-.28.02c-.914-.025-1.901-.848-2-1.826-.108-1.08.443-1.911 1.418-2.108a1.66 1.66 0 0 1 .41-.03c.547.03 1.352.45 1.536 1.644.163 1.056-.096 2.132-1.084 2.3zm-1.02-4.56a2.322 2.322 0 0 0-1.47.939c-.196-.164-.56-.48-.625-.603-.523-.994.57-2.927 1.333-4.018 1.888-2.697 4.842-4.738 6.21-4.368.222.063.959.918.959.918s-1.367.76-2.636 1.82c-1.708 1.317-2.999 3.233-3.772 5.312zm9.59 4.156c.02-.01.033-.03.031-.053a.05.05 0 0 0-.055-.045s-1.431.212-2.783-.284c.147-.48.538-.306 1.13-.258a8.257 8.257 0 0 0 2.73-.296c.613-.176 1.417-.523 2.042-1.017.21.464.285.974.285.974s.163-.03.3.055c.128.079.222.244.158.67-.132.798-.47 1.445-1.038 2.04a4.273 4.273 0 0 1-1.248.934 5.263 5.263 0 0 1-.813.345c-2.144.701-4.338-.07-5.046-1.725a2.686 2.686 0 0 1-.142-.392c-.3-1.091-.045-2.4.755-3.224.049-.052.1-.115.1-.192 0-.065-.042-.133-.077-.182-.28-.407-1.25-1.1-1.055-2.44.14-.964.981-1.642 1.765-1.602l.199.011c.34.02.636.064.916.076.468.02.889-.048 1.388-.464.168-.14.303-.263.53-.3.025-.005.084-.026.203-.02.122.004.24.042.342.11.4.265.456.91.477 1.383.012.27.044.92.056 1.108.025.428.137.488.364.563.128.043.247.074.422.123.528.15.842.3 1.04.494.118.12.172.25.19.373.063.456-.353 1.02-1.454 1.53-1.204.56-2.662.702-3.671.59l-.353-.04c-.807-.11-1.267.935-.783 1.65.312.462 1.162.762 2.012.762 1.95 0 3.448-.834 4.006-1.554l.045-.064c.027-.041.004-.064-.03-.04-.456.311-2.478 1.551-4.643 1.178 0 0-.262-.043-.502-.137-.19-.074-.59-.258-.638-.668 1.746.54 2.845.029 2.845.029zm-6.107-7.85c.672-.776 1.497-1.451 2.237-1.83.025-.013.052.015.039.04-.06.106-.173.335-.208.508a.03.03 0 0 0 .046.031c.46-.314 1.26-.65 1.963-.694.03-.002.045.037.02.056-.115.09-.22.193-.308.31a.03.03 0 0 0 .024.048c.492.003 1.188.176 1.64.43.03.018.01.077-.025.07-.685-.158-1.807-.278-2.973.007-1.04.255-1.834.647-2.413 1.07-.03.02-.065-.018-.042-.046z"/>
  </defs>
  <g fill="none" fill-rule="evenodd">
    <polygon points="0 0 24 0 24 24 0 24"/>
    <mask id="mailchimp-b" fill="#fff">
      <use xlink:href="#mailchimp-a"/>
    </mask>
    <use fill="#000" xlink:href="#mailchimp-a"/>
    <g fill="#000" mask="url(#mailchimp-b)">
      <rect width="24" height="24"/>
    </g>
  </g>
</svg>
